bernoullicharts/pow_x_3_4__bits.svg

<?xml version="1.0" encoding="utf-8" standalone="no"?>
<!DOCTYPE svg PUBLIC "-//W3C//DTD SVG 1.1//EN"
  "http://www.w3.org/Graphics/SVG/1.1/DTD/svg11.dtd">
<!-- Created with matplotlib (https://matplotlib.org/) -->
<svg height="345.6pt" version="1.1" viewBox="0 0 460.8 345.6" width="460.8pt" xmlns="http://www.w3.org/2000/svg" xmlns:xlink="http://www.w3.org/1999/xlink">
 <defs>
  <style type="text/css">
*{stroke-linecap:butt;stroke-linejoin:round;}
  </style>
 </defs>
 <g id="figure_1">
  <g id="patch_1">
   <path d="M 0 345.6 
L 460.8 345.6 
L 460.8 0 
L 0 0 
z
" style="fill:#ffffff;"/>
  </g>
  <g id="axes_1">
   <g id="patch_2">
    <path d="M 57.6 307.584 
L 414.72 307.584 
L 414.72 41.472 
L 57.6 41.472 
z
" style="fill:#ffffff;"/>
   </g>
   <g id="matplotlib.axis_1">
    <g id="xtick_1">
     <g id="line2d_1">
      <defs>
       <path d="M 0 0 
L 0 3.5 
" id="mf577dc2773" style="stroke:#000000;stroke-width:0.8;"/>
      </defs>
      <g>
       <use style="stroke:#000000;stroke-width:0.8;" x="73.800255" xlink:href="#mf577dc2773" y="307.584"/>
      </g>
     </g>
     <g id="text_1">
      <text style="font-family:DejaVu Sans;font-size:10px;font-style:normal;font-weight:normal;text-anchor:middle;" transform="rotate(-0, 73.800255, 322.182437)" x="73.800255" y="322.182437">0.0</text>
     </g>
    </g>
    <g id="xtick_2">
     <g id="line2d_2">
      <g>
       <use style="stroke:#000000;stroke-width:0.8;" x="138.744153" xlink:href="#mf577dc2773" y="307.584"/>
      </g>
     </g>
     <g id="text_2">
      <text style="font-family:DejaVu Sans;font-size:10px;font-style:normal;font-weight:normal;text-anchor:middle;" transform="rotate(-0, 138.744153, 322.182437)" x="138.744153" y="322.182437">0.2</text>
     </g>
    </g>
    <g id="xtick_3">
     <g id="line2d_3">
      <g>
       <use style="stroke:#000000;stroke-width:0.8;" x="203.688051" xlink:href="#mf577dc2773" y="307.584"/>
      </g>
     </g>
     <g id="text_3">
      <text style="font-family:DejaVu Sans;font-size:10px;font-style:normal;font-weight:normal;text-anchor:middle;" transform="rotate(-0, 203.688051, 322.182437)" x="203.688051" y="322.182437">0.4</text>
     </g>
    </g>
    <g id="xtick_4">
     <g id="line2d_4">
      <g>
       <use style="stroke:#000000;stroke-width:0.8;" x="268.631949" xlink:href="#mf577dc2773" y="307.584"/>
      </g>
     </g>
     <g id="text_4">
      <text style="font-family:DejaVu Sans;font-size:10px;font-style:normal;font-weight:normal;text-anchor:middle;" transform="rotate(-0, 268.631949, 322.182437)" x="268.631949" y="322.182437">0.6</text>
     </g>
    </g>
    <g id="xtick_5">
     <g id="line2d_5">
      <g>
       <use style="stroke:#000000;stroke-width:0.8;" x="333.575847" xlink:href="#mf577dc2773" y="307.584"/>
      </g>
     </g>
     <g id="text_5">
      <text style="font-family:DejaVu Sans;font-size:10px;font-style:normal;font-weight:normal;text-anchor:middle;" transform="rotate(-0, 333.575847, 322.182437)" x="333.575847" y="322.182437">0.8</text>
     </g>
    </g>
    <g id="xtick_6">
     <g id="line2d_6">
      <g>
       <use style="stroke:#000000;stroke-width:0.8;" x="398.519745" xlink:href="#mf577dc2773" y="307.584"/>
      </g>
     </g>
     <g id="text_6">
      <text style="font-family:DejaVu Sans;font-size:10px;font-style:normal;font-weight:normal;text-anchor:middle;" transform="rotate(-0, 398.519745, 322.182437)" x="398.519745" y="322.182437">1.0</text>
     </g>
    </g>
    <g id="text_7">
     <text style="font-family:DejaVu Sans;font-size:10px;font-style:normal;font-weight:normal;text-anchor:middle;" transform="rotate(-0, 236.16, 335.860562)" x="236.16" y="335.860562">Probability</text>
    </g>
   </g>
   <g id="matplotlib.axis_2">
    <g id="ytick_1">
     <g id="line2d_7">
      <defs>
       <path d="M 0 0 
L -3.5 0 
" id="m59241fc628" style="stroke:#000000;stroke-width:0.8;"/>
      </defs>
      <g>
       <use style="stroke:#000000;stroke-width:0.8;" x="57.6" xlink:href="#m59241fc628" y="298.407035"/>
      </g>
     </g>
     <g id="text_8">
      <text style="font-family:DejaVu Sans;font-size:10px;font-style:normal;font-weight:normal;text-anchor:end;" transform="rotate(-0, 50.6, 302.206254)" x="50.6" y="302.206254">0</text>
     </g>
    </g>
    <g id="ytick_2">
     <g id="line2d_8">
      <g>
       <use style="stroke:#000000;stroke-width:0.8;" x="57.6" xlink:href="#m59241fc628" y="267.9051"/>
      </g>
     </g>
     <g id="text_9">
      <text style="font-family:DejaVu Sans;font-size:10px;font-style:normal;font-weight:normal;text-anchor:end;" transform="rotate(-0, 50.6, 271.704319)" x="50.6" y="271.704319">20</text>
     </g>
    </g>
    <g id="ytick_3">
     <g id="line2d_9">
      <g>
       <use style="stroke:#000000;stroke-width:0.8;" x="57.6" xlink:href="#m59241fc628" y="237.403164"/>
      </g>
     </g>
     <g id="text_10">
      <text style="font-family:DejaVu Sans;font-size:10px;font-style:normal;font-weight:normal;text-anchor:end;" transform="rotate(-0, 50.6, 241.202383)" x="50.6" y="241.202383">40</text>
     </g>
    </g>
    <g id="ytick_4">
     <g id="line2d_10">
      <g>
       <use style="stroke:#000000;stroke-width:0.8;" x="57.6" xlink:href="#m59241fc628" y="206.901229"/>
      </g>
     </g>
     <g id="text_11">
      <text style="font-family:DejaVu Sans;font-size:10px;font-style:normal;font-weight:normal;text-anchor:end;" transform="rotate(-0, 50.6, 210.700448)" x="50.6" y="210.700448">60</text>
     </g>
    </g>
    <g id="ytick_5">
     <g id="line2d_11">
      <g>
       <use style="stroke:#000000;stroke-width:0.8;" x="57.6" xlink:href="#m59241fc628" y="176.399294"/>
      </g>
     </g>
     <g id="text_12">
      <text style="font-family:DejaVu Sans;font-size:10px;font-style:normal;font-weight:normal;text-anchor:end;" transform="rotate(-0, 50.6, 180.198512)" x="50.6" y="180.198512">80</text>
     </g>
    </g>
    <g id="ytick_6">
     <g id="line2d_12">
      <g>
       <use style="stroke:#000000;stroke-width:0.8;" x="57.6" xlink:href="#m59241fc628" y="145.897358"/>
      </g>
     </g>
     <g id="text_13">
      <text style="font-family:DejaVu Sans;font-size:10px;font-style:normal;font-weight:normal;text-anchor:end;" transform="rotate(-0, 50.6, 149.696577)" x="50.6" y="149.696577">100</text>
     </g>
    </g>
    <g id="ytick_7">
     <g id="line2d_13">
      <g>
       <use style="stroke:#000000;stroke-width:0.8;" x="57.6" xlink:href="#m59241fc628" y="115.395423"/>
      </g>
     </g>
     <g id="text_14">
      <text style="font-family:DejaVu Sans;font-size:10px;font-style:normal;font-weight:normal;text-anchor:end;" transform="rotate(-0, 50.6, 119.194642)" x="50.6" y="119.194642">120</text>
     </g>
    </g>
    <g id="ytick_8">
     <g id="line2d_14">
      <g>
       <use style="stroke:#000000;stroke-width:0.8;" x="57.6" xlink:href="#m59241fc628" y="84.893488"/>
      </g>
     </g>
     <g id="text_15">
      <text style="font-family:DejaVu Sans;font-size:10px;font-style:normal;font-weight:normal;text-anchor:end;" transform="rotate(-0, 50.6, 88.692706)" x="50.6" y="88.692706">140</text>
     </g>
    </g>
    <g id="ytick_9">
     <g id="line2d_15">
      <g>
       <use style="stroke:#000000;stroke-width:0.8;" x="57.6" xlink:href="#m59241fc628" y="54.391552"/>
      </g>
     </g>
     <g id="text_16">
      <text style="font-family:DejaVu Sans;font-size:10px;font-style:normal;font-weight:normal;text-anchor:end;" transform="rotate(-0, 50.6, 58.190771)" x="50.6" y="58.190771">160</text>
     </g>
    </g>
    <g id="text_17">
     <text style="font-family:DejaVu Sans;font-size:10px;font-style:normal;font-weight:normal;text-anchor:middle;" transform="rotate(-90, 25.432812, 174.528)" x="25.432812" y="174.528">Average Bits Consumed Per Call</text>
    </g>
   </g>
   <g id="line2d_16">
    <path clip-path="url(#p0b7a0bcb3c)" d="M 73.832727 53.568 
L 77.112066 283.113365 
L 80.391405 284.132129 
L 83.670744 286.794948 
L 86.950083 287.914369 
L 90.229421 287.856416 
L 93.50876 287.484292 
L 96.788099 288.310895 
L 100.067438 288.295644 
L 103.346777 289.207652 
L 106.626116 290.019003 
L 109.905455 288.692169 
L 113.184793 289.17715 
L 116.464132 288.618964 
L 119.743471 290.558887 
L 123.02281 290.714447 
L 126.302149 290.305721 
L 129.581488 290.714447 
L 132.860826 290.91881 
L 136.140165 290.903559 
L 139.419504 291.69966 
L 142.698843 291.028617 
L 145.978182 291.190277 
L 149.257521 290.970663 
L 152.53686 291.101822 
L 155.816198 291.565451 
L 159.095537 291.281783 
L 162.374876 292.047382 
L 165.654215 292.029081 
L 168.933554 292.300548 
L 172.212893 292.108386 
L 175.492231 291.766764 
L 178.77157 292.309698 
L 182.050909 291.763714 
L 185.330248 292.434756 
L 188.609587 292.196841 
L 191.888926 292.227343 
L 195.168264 292.568965 
L 198.447603 292.855683 
L 201.726942 292.395104 
L 205.006281 293.032594 
L 208.28562 292.785529 
L 211.564959 293.1302 
L 214.844298 292.828231 
L 218.123636 292.938038 
L 221.402975 292.977691 
L 224.682314 293.145451 
L 227.961653 293.133251 
L 231.240992 293.142401 
L 234.520331 293.346764 
L 237.799669 293.685336 
L 241.079008 293.230857 
L 244.358347 293.273559 
L 247.637686 293.636533 
L 250.917025 293.648733 
L 254.196364 294.011706 
L 257.475702 293.609081 
L 260.755041 294.033058 
L 264.03438 293.789042 
L 267.313719 293.9141 
L 270.593058 294.020857 
L 273.872397 294.008656 
L 277.151736 293.965953 
L 280.431074 293.932401 
L 283.710413 293.929351 
L 286.989752 293.956803 
L 290.269091 294.142865 
L 293.54843 294.060509 
L 296.827769 294.399081 
L 300.107107 294.179467 
L 303.386446 294.710201 
L 306.665785 294.466185 
L 309.945124 294.579042 
L 313.224463 294.618695 
L 316.503802 294.283174 
L 319.78314 294.640046 
L 323.062479 294.768154 
L 326.341818 294.615645 
L 329.621157 294.786455 
L 332.900496 294.963367 
L 336.179835 294.905413 
L 339.459174 294.54854 
L 342.738512 294.752903 
L 346.017851 295.207382 
L 349.29719 294.588193 
L 352.576529 294.905413 
L 355.855868 294.85966 
L 359.135207 294.820008 
L 362.414545 294.920664 
L 365.693884 295.073174 
L 368.973223 294.780355 
L 372.252562 294.948116 
L 375.531901 295.189081 
L 378.81124 295.240934 
L 382.090579 295.32329 
L 385.369917 295.488 
L 388.649256 295.298888 
L 391.928595 295.396494 
L 395.207934 295.32329 
L 398.487273 295.460548 
" style="fill:none;stroke:#1f77b4;stroke-linecap:square;stroke-width:1.5;"/>
   </g>
   <g id="patch_3">
    <path d="M 57.6 307.584 
L 57.6 41.472 
" style="fill:none;stroke:#000000;stroke-linecap:square;stroke-linejoin:miter;stroke-width:0.8;"/>
   </g>
   <g id="patch_4">
    <path d="M 414.72 307.584 
L 414.72 41.472 
" style="fill:none;stroke:#000000;stroke-linecap:square;stroke-linejoin:miter;stroke-width:0.8;"/>
   </g>
   <g id="patch_5">
    <path d="M 57.6 307.584 
L 414.72 307.584 
" style="fill:none;stroke:#000000;stroke-linecap:square;stroke-linejoin:miter;stroke-width:0.8;"/>
   </g>
   <g id="patch_6">
    <path d="M 57.6 41.472 
L 414.72 41.472 
" style="fill:none;stroke:#000000;stroke-linecap:square;stroke-linejoin:miter;stroke-width:0.8;"/>
   </g>
   <g id="text_18">
    <text style="font-family:DejaVu Sans;font-size:12px;font-style:normal;font-weight:normal;text-anchor:middle;" transform="rotate(-0, 236.16, 35.472)" x="236.16" y="35.472">Avg. Bits Consumed by pow(x,3/4) Algorithm</text>
   </g>
   <g id="legend_1">
    <g id="patch_7">
     <path d="M 322.080938 64.150125 
L 407.72 64.150125 
Q 409.72 64.150125 409.72 62.150125 
L 409.72 48.472 
Q 409.72 46.472 407.72 46.472 
L 322.080938 46.472 
Q 320.080938 46.472 320.080938 48.472 
L 320.080938 62.150125 
Q 320.080938 64.150125 322.080938 64.150125 
z
" style="fill:#ffffff;opacity:0.8;stroke:#cccccc;stroke-linejoin:miter;"/>
    </g>
    <g id="line2d_17">
     <path d="M 324.080938 54.570438 
L 344.080938 54.570438 
" style="fill:none;stroke:#1f77b4;stroke-linecap:square;stroke-width:1.5;"/>
    </g>
    <g id="line2d_18"/>
    <g id="text_19">
     <text style="font-family:DejaVu Sans;font-size:10px;font-style:normal;font-weight:normal;text-anchor:start;" transform="rotate(-0, 352.080938, 58.070438)" x="352.080938" y="58.070438">pow(x,3/4)</text>
    </g>
   </g>
  </g>
 </g>
 <defs>
  <clipPath id="p0b7a0bcb3c">
   <rect height="266.112" width="357.12" x="57.6" y="41.472"/>
  </clipPath>
 </defs>
</svg>

<svg height="460.8" viewBox="0 0 460.8 345.6" width="614.4" xmlns="http://www.w3.org/2000/svg" xmlns:xlink="http://www.w3.org/1999/xlink"><defs><style>*{stroke-linecap:butt;stroke-linejoin:round}</style></defs><g id="figure_1"><path d="M0 345.6h460.8V0H0z" fill="#fff" id="patch_1"/><g id="axes_1"><path d="M57.6 307.584h357.12V41.472H57.6z" fill="#fff" id="patch_2"/><g id="matplotlib.axis_1"><g id="xtick_1"><g id="line2d_1"><defs><path d="M0 0v3.5" id="mf577dc2773" stroke="#000" stroke-width=".8"/></defs><use x="73.8" xlink:href="#mf577dc2773" y="307.584" stroke="#000" stroke-width=".8"/></g><text x="73.8" y="322.182" font-family="DejaVu Sans" font-size="10" font-weight="400" text-anchor="middle" id="text_1">0.0</text></g><g id="xtick_2"><use x="138.744" xlink:href="#mf577dc2773" y="307.584" stroke="#000" stroke-width=".8" id="line2d_2"/><text x="138.744" y="322.182" font-family="DejaVu Sans" font-size="10" font-weight="400" text-anchor="middle" id="text_2">0.2</text></g><g id="xtick_3"><use x="203.688" xlink:href="#mf577dc2773" y="307.584" stroke="#000" stroke-width=".8" id="line2d_3"/><text x="203.688" y="322.182" font-family="DejaVu Sans" font-size="10" font-weight="400" text-anchor="middle" id="text_3">0.4</text></g><g id="xtick_4"><use x="268.632" xlink:href="#mf577dc2773" y="307.584" stroke="#000" stroke-width=".8" id="line2d_4"/><text x="268.632" y="322.182" font-family="DejaVu Sans" font-size="10" font-weight="400" text-anchor="middle" id="text_4">0.6</text></g><g id="xtick_5"><use x="333.576" xlink:href="#mf577dc2773" y="307.584" stroke="#000" stroke-width=".8" id="line2d_5"/><text x="333.576" y="322.182" font-family="DejaVu Sans" font-size="10" font-weight="400" text-anchor="middle" id="text_5">0.8</text></g><g id="xtick_6"><use x="398.52" xlink:href="#mf577dc2773" y="307.584" stroke="#000" stroke-width=".8" id="line2d_6"/><text x="398.52" y="322.182" font-family="DejaVu Sans" font-size="10" font-weight="400" text-anchor="middle" id="text_6">1.0</text></g><text x="236.16" y="335.861" font-family="DejaVu Sans" font-size="10" font-weight="400" text-anchor="middle" id="text_7">Probability</text></g><g id="matplotlib.axis_2"><g id="ytick_1"><g id="line2d_7"><defs><path d="M0 0h-3.5" id="m59241fc628" stroke="#000" stroke-width=".8"/></defs><use x="57.6" xlink:href="#m59241fc628" y="298.407" stroke="#000" stroke-width=".8"/></g><text x="50.6" y="302.206" font-family="DejaVu Sans" font-size="10" font-weight="400" text-anchor="end" id="text_8">0</text></g><g id="ytick_2"><use x="57.6" xlink:href="#m59241fc628" y="267.905" stroke="#000" stroke-width=".8" id="line2d_8"/><text x="50.6" y="271.704" font-family="DejaVu Sans" font-size="10" font-weight="400" text-anchor="end" id="text_9">20</text></g><g id="ytick_3"><use x="57.6" xlink:href="#m59241fc628" y="237.403" stroke="#000" stroke-width=".8" id="line2d_9"/><text x="50.6" y="241.202" font-family="DejaVu Sans" font-size="10" font-weight="400" text-anchor="end" id="text_10">40</text></g><g id="ytick_4"><use x="57.6" xlink:href="#m59241fc628" y="206.901" stroke="#000" stroke-width=".8" id="line2d_10"/><text x="50.6" y="210.7" font-family="DejaVu Sans" font-size="10" font-weight="400" text-anchor="end" id="text_11">60</text></g><g id="ytick_5"><use x="57.6" xlink:href="#m59241fc628" y="176.399" stroke="#000" stroke-width=".8" id="line2d_11"/><text x="50.6" y="180.199" font-family="DejaVu Sans" font-size="10" font-weight="400" text-anchor="end" id="text_12">80</text></g><g id="ytick_6"><use x="57.6" xlink:href="#m59241fc628" y="145.897" stroke="#000" stroke-width=".8" id="line2d_12"/><text x="50.6" y="149.697" font-family="DejaVu Sans" font-size="10" font-weight="400" text-anchor="end" id="text_13">100</text></g><g id="ytick_7"><use x="57.6" xlink:href="#m59241fc628" y="115.395" stroke="#000" stroke-width=".8" id="line2d_13"/><text x="50.6" y="119.195" font-family="DejaVu Sans" font-size="10" font-weight="400" text-anchor="end" id="text_14">120</text></g><g id="ytick_8"><use x="57.6" xlink:href="#m59241fc628" y="84.893" stroke="#000" stroke-width=".8" id="line2d_14"/><text x="50.6" y="88.693" font-family="DejaVu Sans" font-size="10" font-weight="400" text-anchor="end" id="text_15">140</text></g><g id="ytick_9"><use x="57.6" xlink:href="#m59241fc628" y="54.392" stroke="#000" stroke-width=".8" id="line2d_15"/><text x="50.6" y="58.191" font-family="DejaVu Sans" font-size="10" font-weight="400" text-anchor="end" id="text_16">160</text></g><text transform="rotate(-90 25.433 174.528)" x="25.433" y="174.528" font-family="DejaVu Sans" font-size="10" font-weight="400" text-anchor="middle" id="text_17">Average Bits Consumed Per Call</text></g><path clip-path="url(#p0b7a0bcb3c)" d="M73.833 53.568l3.28 229.545 3.278 1.02 3.28 2.662 3.28 1.12 3.278-.059 3.28-.372 3.28.827 3.278-.015 3.28.912 3.28.811 3.278-1.327 3.28.485 3.28-.558 3.278 1.94 3.28.155 3.28-.408 3.278.408 3.28.205 3.28-.015 3.279.796 3.279-.671 3.28.161 3.279-.22 3.279.132 3.28.463 3.279-.283 3.279.765 3.28-.018 3.279.272 3.279-.193 3.28-.341 3.279.543 3.279-.546 3.28.67 3.279-.237 3.279.03 3.28.342 3.279.287 3.279-.46 3.28.637 3.279-.247 3.279.344 3.28-.302 3.279.11 3.279.04 3.28.167 3.279-.012 3.279.01 3.28.204 3.279.338 3.279-.454 3.28.043 3.279.363 3.279.012 3.28.363 3.279-.403 3.279.424 3.28-.244 3.279.125 3.28.107 3.278-.012 3.28-.043 3.28-.034 3.278-.003 3.28.028 3.28.186 3.278-.082 3.28.338 3.28-.22 3.278.531 3.28-.244 3.28.113 3.278.04 3.28-.336 3.28.357 3.278.128 3.28-.152 3.28.17 3.278.177 3.28-.058 3.28-.356 3.279.204 3.279.454 3.28-.619 3.279.317 3.279-.045 3.28-.04 3.279.1 3.279.153 3.28-.293 3.279.168 3.279.241 3.28.052 3.279.082 3.279.165 3.28-.19 3.279.098 3.279-.073 3.28.138" fill="none" stroke="#1f77b4" stroke-linecap="square" stroke-width="1.5" id="line2d_16"/><path d="M57.6 307.584V41.472" fill="none" stroke="#000" stroke-linecap="square" stroke-width=".8" id="patch_3"/><path d="M414.72 307.584V41.472" fill="none" stroke="#000" stroke-linecap="square" stroke-width=".8" id="patch_4"/><path d="M57.6 307.584h357.12" fill="none" stroke="#000" stroke-linecap="square" stroke-width=".8" id="patch_5"/><path d="M57.6 41.472h357.12" fill="none" stroke="#000" stroke-linecap="square" stroke-width=".8" id="patch_6"/><text x="236.16" y="35.472" font-family="DejaVu Sans" font-size="12" font-weight="400" text-anchor="middle" id="text_18">Avg. Bits Consumed by pow(x,3/4) Algorithm</text><g id="legend_1"><path d="M322.08 64.15h85.64q2 0 2-2V48.472q0-2-2-2h-85.64q-2 0-2 2V62.15q0 2 2 2z" fill="#fff" opacity=".8" stroke="#ccc" id="patch_7"/><path d="M324.08 54.57h20" fill="none" stroke="#1f77b4" stroke-linecap="square" stroke-width="1.5" id="line2d_17"/><text x="352.081" y="58.07" font-family="DejaVu Sans" font-size="10" font-weight="400" id="text_19">pow(x,3/4)</text></g></g></g><defs><clipPath id="p0b7a0bcb3c"><path d="M57.6 41.472h357.12v266.112H57.6z"/></clipPath></defs></svg>
